assets/static/images/instagram-icon.svg

<svg width="28" height="28" viewBox="0 0 28 28" fill="none" xmlns="http://www.w3.org/2000/svg">
<circle cx="14" cy="14" r="14" fill="white"/>
<path fill-rule="evenodd" clip-rule="evenodd" d="M17.4839 7.54839H10.5161C8.87709 7.54839 7.54839 8.87709 7.54839 10.5161V17.4839C7.54839 19.1229 8.87709 20.4516 10.5161 20.4516H17.4839C19.1229 20.4516 20.4516 19.1229 20.4516 17.4839V10.5161C20.4516 8.87709 19.1229 7.54839 17.4839 7.54839ZM10.5161 6C8.02194 6 6 8.02194 6 10.5161V17.4839C6 19.9781 8.02194 22 10.5161 22H17.4839C19.9781 22 22 19.9781 22 17.4839V10.5161C22 8.02194 19.9781 6 17.4839 6H10.5161Z" fill="#4a00b0"/>
<path fill-rule="evenodd" clip-rule="evenodd" d="M13.9352 16.5806C15.3249 16.5806 16.4514 15.4541 16.4514 14.0645C16.4514 12.6749 15.3249 11.5484 13.9352 11.5484C12.5456 11.5484 11.4191 12.6749 11.4191 14.0645C11.4191 15.4541 12.5456 16.5806 13.9352 16.5806ZM13.9352 18.129C16.18 18.129 17.9998 16.3093 17.9998 14.0645C17.9998 11.8197 16.18 10 13.9352 10C11.6905 10 9.87073 11.8197 9.87073 14.0645C9.87073 16.3093 11.6905 18.129 13.9352 18.129Z" fill="#4a00b0"/>
<path d="M19.1613 9.93552C19.1613 10.47 18.7281 10.9033 18.1936 10.9033C17.6591 10.9033 17.2259 10.47 17.2259 9.93552C17.2259 9.40105 17.6591 8.96777 18.1936 8.96777C18.7281 8.96777 19.1613 9.40105 19.1613 9.93552Z" fill="#4a00b0"/>
</svg>

<svg width="28" height="28" fill="none" xmlns="http://www.w3.org/2000/svg"><circle cx="14" cy="14" r="14" fill="#fff"/><path fill-rule="evenodd" clip-rule="evenodd" d="M17.484 7.548h-6.968a2.968 2.968 0 00-2.968 2.968v6.968a2.968 2.968 0 002.968 2.968h6.968a2.968 2.968 0 002.968-2.968v-6.968a2.968 2.968 0 00-2.968-2.968zM10.516 6A4.516 4.516 0 006 10.516v6.968A4.516 4.516 0 0010.516 22h6.968A4.516 4.516 0 0022 17.484v-6.968A4.516 4.516 0 0017.484 6h-6.968z" fill="#4a00b0"/><path fill-rule="evenodd" clip-rule="evenodd" d="M13.935 16.58a2.516 2.516 0 100-5.032 2.516 2.516 0 000 5.033zm0 1.549a4.065 4.065 0 100-8.13 4.065 4.065 0 000 8.13z" fill="#4a00b0"/><path d="M19.161 9.936a.968.968 0 11-1.935 0 .968.968 0 011.935 0z" fill="#4a00b0"/></svg>
